svgs/thin/gauge-circle-bolt.svg

<svg xmlns="http://www.w3.org/2000/svg" viewBox="0 0 640 512"><!--! Font Awesome Pro 6.4.2 by @fontawesome - https://fontawesome.com License - https://fontawesome.com/license (Commercial License) Copyright 2023 Fonticons, Inc. --><path d="M256 496c35.6 0 69.4-7.7 99.8-21.6c3.3 4.4 6.9 8.6 10.6 12.7C333 503 295.5 512 256 512C114.6 512 0 397.4 0 256S114.6 0 256 0C375.4 0 475.6 81.7 504 192.2c-2.6-.1-5.3-.2-8-.2c-2.9 0-5.7 .1-8.6 .2C459.5 90.6 366.5 16 256 16C123.5 16 16 123.5 16 256s107.5 240 240 240zm0-96a48 48 0 1 0 0-96 48 48 0 1 0 0 96zm0 16c-35.3 0-64-28.7-64-64c0-32.6 24.4-59.6 56-63.5V80c0-4.4 3.6-8 8-8s8 3.6 8 8V288.5c31.6 3.9 56 30.9 56 63.5c0 35.3-28.7 64-64 64zM144 112a16 16 0 1 1 0 32 16 16 0 1 1 0-32zM80 240a16 16 0 1 1 32 0 16 16 0 1 1 -32 0zM352 128a16 16 0 1 1 32 0 16 16 0 1 1 -32 0zM496 496a128 128 0 1 0 0-256 128 128 0 1 0 0 256zm0-272a144 144 0 1 1 0 288 144 144 0 1 1 0-288zm36.5 57.4c3 2 4.3 5.8 3.1 9.2L517.8 344H576c3.3 0 6.3 2.1 7.5 5.2s.2 6.7-2.3 8.8l-112 96c-2.7 2.3-6.7 2.6-9.7 .6s-4.3-5.8-3.1-9.2L474.2 392H416c-3.3 0-6.3-2.1-7.5-5.2s-.2-6.7 2.3-8.8l112-96c2.7-2.3 6.7-2.6 9.7-.6zM437.6 376h47.7c2.6 0 5 1.2 6.5 3.3s1.9 4.8 1.1 7.2l-12.2 36.6L554.4 360H506.7c-2.6 0-5-1.2-6.5-3.3s-1.9-4.8-1.1-7.2l12.2-36.6L437.6 376z"/></svg>

<svg xmlns="http://www.w3.org/2000/svg" viewBox="0 0 640 512"><!--! Font Awesome Pro 6.1.1 by @fontawesome - https://fontawesome.com License - https://fontawesome.com/license (Commercial License) Copyright 2022 Fonticons, Inc. --><path d="M256 496C291.6 496 325.4 488.3 355.8 474.4C359.1 478.8 362.6 482.1 366.4 487C332.1 503 295.5 512 256 512C114.6 512 0 397.4 0 256C0 114.6 114.6 0 256 0C375.4 0 475.6 81.67 503.1 192.2C501.3 192.1 498.7 192 496 192C493.1 192 490.3 192.1 487.4 192.2C459.5 90.62 366.5 16 256 16C123.5 16 16 123.5 16 256C16 388.5 123.5 496 256 496zM192 352C192 319.4 216.4 292.4 247.1 288.5V79.1C247.1 75.58 251.6 71.1 255.1 71.1C260.4 71.1 263.1 75.58 263.1 79.1V288.5C295.6 292.4 320 319.4 320 352C320 387.3 291.3 416 256 416C220.7 416 192 387.3 192 352zM256 400C282.5 400 304 378.5 304 352C304 325.5 282.5 304 256 304C229.5 304 208 325.5 208 352C208 378.5 229.5 400 256 400zM128 128C128 119.2 135.2 112 144 112C152.8 112 160 119.2 160 128C160 136.8 152.8 144 144 144C135.2 144 128 136.8 128 128zM112 240C112 248.8 104.8 256 96 256C87.16 256 80 248.8 80 240C80 231.2 87.16 224 96 224C104.8 224 112 231.2 112 240zM384 128C384 136.8 376.8 144 368 144C359.2 144 352 136.8 352 128C352 119.2 359.2 112 368 112C376.8 112 384 119.2 384 128zM532.5 281.4C535.4 283.4 536.7 287.1 535.6 290.5L517.8 344H576C579.3 344 582.3 346.1 583.5 349.2C584.7 352.4 583.7 355.9 581.2 358.1L469.2 454.1C466.5 456.4 462.5 456.6 459.5 454.6C456.6 452.6 455.3 448.9 456.4 445.5L474.2 392H416C412.7 392 409.7 389.9 408.5 386.8C407.3 383.6 408.3 380.1 410.8 377.9L522.8 281.9C525.5 279.6 529.5 279.4 532.5 281.4H532.5zM437.6 376H485.3C487.9 376 490.3 377.2 491.8 379.3C493.3 381.4 493.7 384.1 492.9 386.5L480.7 423.1L554.4 360H506.7C504.1 360 501.7 358.8 500.2 356.7C498.7 354.6 498.3 351.9 499.1 349.5L511.3 312.9L437.6 376zM352 368C352 288.5 416.5 224 496 224C575.5 224 640 288.5 640 368C640 447.5 575.5 512 496 512C416.5 512 352 447.5 352 368zM496 496C566.7 496 624 438.7 624 368C624 297.3 566.7 240 496 240C425.3 240 368 297.3 368 368C368 438.7 425.3 496 496 496z"/></svg>
